!!!OTL: Zwei Koenigskinder
!!!ARE: Europa, Mitteleuropa, Deutschland
!!!SCT: A0026B
!!!YEM: Copyright 1995, estate of Helmut Schaffrath.
**kern
*ICvox
*Ivox
*M3/4
*k[b-e-]
*g:
{4g
=1
4.g
8a
4b-
=2
2a
4g
=3
4.a
8b-
4cc
=4
2dd}
{4dd
=5
4.cc
8b-
4a
=6
4b-
2g
=7
[2.fn
=8
4fn]
4r}
{4fn
=9
2a
4b-
=10
2cc
4b-
=11
4.g
8a
4b-
=12
2a}
{4g
=13
4fn
2d
=14
2g
4f#
=15
[2.g
=16
4g]
4r}
==
!! Neusiedlers Lautenbuch 1536 I
!!!ONB: ESAC (Essen Associative Code) Database: ALTDEU
!!!AMT: simple triple
!!!AIN: vox
!!!EED: Helmut Schaffrath
!!!EEV: 1.0
*-
